icons/tag-arrow-right-outline.svg

<svg xmlns="http://www.w3.org/2000/svg" width="24" height="24" viewBox="0 0 24 24">
  <path d="M13,2 C13.2652165,2 13.5195704,2.10535684 13.7071068,2.29289322 L13.7071068,2.29289322 L21.2928932,9.87867966 C22.4644661,11.0502525 22.4644661,12.9497475 21.2928932,14.1213203 L21.2928932,14.1213203 L14.1213203,21.2928932 C12.9497475,22.4644661 11.0502525,22.4644661 9.87867966,21.2928932 L9.87867966,21.2928932 L2.29289322,13.7071068 C2.10535684,13.5195704 2,13.2652165 2,13 L2,13 L2,5 C2,3.34314575 3.34314575,2 5,2 L5,2 Z M12.585,4 L5,4 C4.44771525,4 4,4.44771525 4,5 L4,5 L4,12.585 L11.2928932,19.8786797 C11.6533772,20.2391636 12.2206082,20.2668932 12.6128994,19.9618683 L12.6128994,19.9618683 L12.7071068,19.8786797 L19.8786797,12.7071068 C20.2692039,12.3165825 20.2692039,11.6834175 19.8786797,11.2928932 L19.8786797,11.2928932 L12.585,4 Z M15.767,11.359 L15.7803112,11.374551 L15.7837744,11.3788907 L15.779,11.374 L15.8036654,11.4046934 L15.8036654,11.4046934 C15.8215099,11.4288693 15.8382813,11.453725 15.8539326,11.4793398 L15.8753288,11.5159379 L15.8753288,11.5159379 C15.8862061,11.5357061 15.8966234,11.5561086 15.9063462,11.5769009 L15.9287745,11.628664 L15.9287745,11.628664 C15.9366843,11.6484208 15.9438775,11.6682023 15.9504533,11.6882636 C15.9552713,11.7031487 15.9599023,11.7185367 15.9641549,11.734007 C15.9701664,11.7555635 15.9753602,11.7772539 15.9798348,11.7992059 C15.9832978,11.8166247 15.9863719,11.834051 15.9889822,11.8515331 L15.996002,11.909968 L15.996002,11.909968 C15.99693,11.9208131 15.9976744,11.9308872 15.9982669,11.9409686 L15.9998198,11.980824 L16,12 L16,12 L15.999,12.019 L15.9982669,12.0590314 L15.997,12.075 L15.997,12.059 L15.996,12.081 L15.9889807,12.1489612 L15.9889807,12.1489612 C15.9863719,12.165949 15.9832978,12.1833753 15.9797599,12.2007258 C15.9753602,12.2227461 15.9701664,12.2444365 15.964279,12.2658396 C15.9599023,12.2814633 15.9552713,12.2968513 15.9502619,12.3121425 C15.9438775,12.3317977 15.9366843,12.3515792 15.928896,12.3710585 L15.9063266,12.4232215 L15.9063266,12.4232215 C15.8966234,12.4438914 15.8862061,12.4642939 15.8751242,12.484277 C15.8685012,12.4963944 15.8613931,12.5086131 15.8540045,12.5207088 C15.8382813,12.546275 15.8215099,12.5711307 15.8036865,12.5951593 C15.7992821,12.6012086 15.7948255,12.6070733 15.7902954,12.6128994 C15.7849289,12.6196628 15.7826279,12.6225624 15.7803112,12.625449 L15.7071068,12.7071068 L12.7071068,15.7071068 C12.3165825,16.0976311 11.6834175,16.0976311 11.2928932,15.7071068 C10.9324093,15.3466228 10.9046797,14.7793918 11.2097046,14.3871006 L11.2928932,14.2928932 L12.585,13 L9,13 C8.44771525,13 8,12.5522847 8,12 C8,11.4871642 8.38604019,11.0644928 8.88337887,11.0067277 L9,11 L12.585,11 L11.2928932,9.70710678 C10.9023689,9.31658249 10.9023689,8.68341751 11.2928932,8.29289322 C11.6533772,7.93240926 12.2206082,7.90467972 12.6128994,8.20970461 L12.7071068,8.29289322 L15.7071068,11.2928932 L15.775,11.37 L15.767,11.359 Z"/>
</svg>

<svg xmlns="http://www.w3.org/2000/svg" viewBox="0 0 24 24">
  <path d="M13 2a1 1 0 0 1 .7.3l7.6 7.58a3 3 0 0 1 0 4.24l-7.18 7.17a3 3 0 0 1-4.24 0l-7.59-7.58A1 1 0 0 1 2 13V5a3 3 0 0 1 3-3zm-.41 2H5a1 1 0 0 0-1 1v7.59l7.3 7.29a1 1 0 0 0 1.31.08l.1-.08 7.17-7.17a1 1 0 0 0 0-1.42L12.58 4zm3.18 7.36.01.01.02.03.05.08.03.04.03.06.02.05a.99.99 0 0 1 .06.22v.09l.01.04v.09-.01.02l-.01.07a1.08 1.08 0 0 1-.06.22l-.02.05a1.02 1.02 0 0 1-.13.2l-.07.09-3 3a1 1 0 0 1-1.5-1.32l.08-.1L12.6 13H9a1 1 0 0 1-.12-2h3.71l-1.3-1.3a1 1 0 0 1 1.32-1.49l.1.08 3 3 .06.08v-.01z"/>
</svg>
